X:1
T:Title
%%score { ( 1 3 ) | ( 2 4 ) }
L:1/8
Q:1/4=100
M:4/4
K:Eb
V:1 treble nm="Grand Piano"
V:3 treble 
V:2 bass 
V:4 bass 
V:1
 [Ec]>[Ec] [_DB]>[CA] [CE]>[CE] [=B,=D]>[CE] | [EG]>F F>=E F4 | B>B =A>B G>G F>E | %3
w: W.~J.~Judefind * * * * * * *|||
 A>A c>[Ec] [Ee]4 | [Ec]>[Ec] [_DB]>[CA] [CE]>[CE] [=B,=D]>[CE] | [EG]>F F>=E F4 | E>E c>_d c2 B2 | %7
w: ||||
 [CA]6 z2 | [DAB]4 [DAd]4 | [EGB]4 [EGe]4 | [FAe]>[Ad] [FAd]>[Ac] [Ad]2 [DA]2 | %11
w: ||||
 [EGc]>[GB] [EGB]>[_G=A] [B,E=GB]2 [EG]2 | [DAB]4 [DAd]4 | [EGB]4 [EGe]4 | %14
w: |||
 [DAd]>[Ad] [DAc]>[AB] [Ac]2 [DAd]2 | [EGe]6[K:bass] z2 | %16
w: ||
 [Ec]>[Ec] [_DB]>[CA] [CE]>[CE] [=B,=D]>[CE] | [EG]>F F>=E F4 | B>B =A>B G>G F>E | %19
w: |||
 A>A c>[Ec] [Ee]4 | [Ec]>[Ec] [_DB]>[CA] [CE]>[CE] [=B,=D]>[CE] | [EG]>F F>=E F4 | E>E c>_d c2 B2 | %23
w: ||||
[M:8/4] [CA]8 z8 |] %24
w: |
V:2
 [A,,A,]>[A,,A,] [A,,E,]>[A,,E,] [A,,A,]>[A,,A,] [A,,A,]>[A,,A,] | %1
 [_D,A,]>[D,A,_D] [D,A,D]>[D,G,D] [D,A,D]4 | %2
 [E,G,_D]>[E,G,D] [E,_G,D]>[E,=G,D] [E,B,D]>[E,B,D] [F,B,D]>[G,B,D] | %3
 [A,C]>[A,C] [E,A,E]>[C,A,] [A,,C]4 | %4
 [A,,A,]>[A,,A,] [A,,E,]>[A,,E,] [A,,A,]>[A,,A,] [A,,A,]>[A,,A,] | %5
 [_D,A,]>[D,A,_D] [D,A,D]>[D,G,D] [D,A,D]4 | [E,A,C]>[E,A,C] [E,A,E]>[E,A,F] [E,A,E]2 [E,G,_D]2 | %7
 [A,,A,]6 z2 | [F,A,]2 B,,2 [F,B,]2 B,,2 | E,2 B,,2 [E,B,]2 B,,2 | z z/ F/ z z/ F/ [F,B,D]2 B,,2 | %11
 z z/ E/ z z/ E/ E,2 B,,2 | [F,A,]2 B,,2 [F,B,]2 B,,2 | E,2 B,,2 [E,B,]2 B,,2 | %14
 z z/ D/ z z/ D/ [F,B,D]2 B,,2 | [E,,E,]2 _D,,2 C,,2 B,,,2 | %16
 [A,,A,]>[A,,A,] [A,,E,]>[A,,E,] [A,,A,]>[A,,A,] [A,,A,]>[A,,A,] | %17
 [_D,A,]>[D,A,_D] [D,A,D]>[D,G,D] [D,A,D]4 | %18
 [E,G,_D]>[E,G,D] [E,_G,D]>[E,=G,D] [E,B,D]>[E,B,D] [F,B,D]>[G,B,D] | %19
 [A,C]>[A,C] [E,A,E]>[C,A,] [A,,C]4 | %20
 [A,,A,]>[A,,A,] [A,,E,]>[A,,E,] [A,,A,]>[A,,A,] [A,,A,]>[A,,A,] | %21
 [_D,A,]>[D,A,_D] [D,A,D]>[D,G,D] [D,A,D]4 | [E,A,C]>[E,A,C] [E,A,E]>[E,A,F] [E,A,E]2 [E,G,_D]2 | %23
[M:8/4] [A,,A,]8 z8 |] %24
V:3
 x8 | x8 | x8 | x8 | x8 | x8 | x8 | x8 | x8 | B,2 z2 z4 | x8 | x8 | x8 | B,2 z2 z4 | x8 | %15
 z2[K:bass] _D,2 C,2 B,,2 | x8 | x8 | x8 | x8 | x8 | x8 | x8 |[M:8/4] x16 |] %24
V:4
 x8 | x8 | x8 | x8 | x8 | x8 | x8 | x8 | x8 | x8 | [F,B,]2 B,,2 z4 | [E,B,]2 B,,2 z4 | x8 | x8 | %14
 [F,B,]2 B,,2 z4 | x8 | x8 | x8 | x8 | x8 | x8 | x8 | x8 |[M:8/4] x16 |] %24

